wordpress/wp-content/plugins/google-analytics-for-wordpress/lite/assets/vue/img/icon-info.svg

<svg width="16" height="16" viewBox="0 0 16 16" fill="none" xmlns="http://www.w3.org/2000/svg">
	<path
		d="M8 0.25C3.71875 0.25 0.25 3.75 0.25 8C0.25 12.2812 3.71875 15.75 8 15.75C12.25 15.75 15.75 12.2812 15.75 8C15.75 3.75 12.25 0.25 8 0.25ZM8 3.6875C8.71875 3.6875 9.3125 4.28125 9.3125 5C9.3125 5.75 8.71875 6.3125 8 6.3125C7.25 6.3125 6.6875 5.75 6.6875 5C6.6875 4.28125 7.25 3.6875 8 3.6875ZM9.75 11.625C9.75 11.8438 9.5625 12 9.375 12H6.625C6.40625 12 6.25 11.8438 6.25 11.625V10.875C6.25 10.6875 6.40625 10.5 6.625 10.5H7V8.5H6.625C6.40625 8.5 6.25 8.34375 6.25 8.125V7.375C6.25 7.1875 6.40625 7 6.625 7H8.625C8.8125 7 9 7.1875 9 7.375V10.5H9.375C9.5625 10.5 9.75 10.6875 9.75 10.875V11.625Z"
		fill="white"/>
</svg>

<svg width="16" height="16" fill="none" xmlns="http://www.w3.org/2000/svg"><path d="M8 .25C3.719.25.25 3.75.25 8A7.749 7.749 0 008 15.75c4.25 0 7.75-3.469 7.75-7.75 0-4.25-3.5-7.75-7.75-7.75zm0 3.438A1.32 1.32 0 019.313 5 1.3 1.3 0 018 6.313c-.75 0-1.313-.563-1.313-1.313A1.3 1.3 0 018 3.687zm1.75 7.937a.38.38 0 01-.375.375h-2.75a.361.361 0 01-.375-.375v-.75a.38.38 0 01.375-.375H7v-2h-.375a.361.361 0 01-.375-.375v-.75A.38.38 0 016.625 7h2c.188 0 .375.188.375.375V10.5h.375c.188 0 .375.188.375.375v.75z" fill="#fff"/></svg>
